X: 8
T: No_105_Song_at_About_Midnight_(c).krn
N: Derived from No_105_Song_at_About_Midnight_(c).krn
%%abc-version 2.0
%%abcx-abcm2ps-target-version 5.9.1 (29 Sep 2008)
%%abc-creator hum2abc beta
%%abcx-conversion-date 2019/03/15 08:39:19
%%humdrum-veritas 1853561223
%%humdrum-veritas-data 2354828196
%%linebreak <none>
%%barnumbers 0
L: 1/8
M: 2/4
%%staves {1 2}
V: 1 clef=bass
V: 2 clef=bass
K: F
[V:1] [K:clef=bass][M:2/4]z2G,/F,3/ | 
[V:2] [K:clef=bass][M:2/4]z G,, G,,G,, | 
[V:1] C2B,2 | 
[V:2] z G,, G,,G,, | 
[V:1] G,4 | 
[V:2] z G,, G,,G,, | 
[V:1] C2C2 | 
[V:2] z G,, G,,G,, | 
[V:1] C3B, | 
[V:2] z G,, G,,G,, | 
[V:1] G,F,F,2 ]|:  
[V:2] z G,, G,,G,, ]|:  
[V:1] B,2CB, | 
[V:2] z G,, G,,G,, | 
[V:1] B,3G, | 
[V:2] z G,, G,,G,, | 
[V:1] F,F,F,2 | 
[V:2] z G,, G,,G,, | 
[V:1] F,2z2 ||  
[V:2] G,, zz2 ||  
[V:1] [M:4/4]z2F,2(3G,F,F, G,F, ||  
[V:2] [M:4/4]z2z2(3G,,G,,G,, G,,G,, ||  
[V:1] [M:2/4]B,2CB, | 
[V:2] [M:2/4]z G,, G,,G,, | 
[V:1] B,3G, | 
[V:2] z G,, G,,G,, | 
[V:1] F,F,F,2 | 
[V:2] z G,, G,,G,, | 
[V:1] F,2z2 ||  
[V:2] G,, zz2 ||  
[V:1] [M:4/4]z2F,2(3G,F,F, G,F, ||  
[V:2] [M:4/4]z2z2(3z G,,G,, G,,G,, ||  
[V:1] [M:2/4]B,2CB, | 
[V:2] [M:2/4]z G,, G,,G,, | 
[V:1] B,3G, | 
[V:2] z G,, G,,G,, | 
[V:1] F,F,F,2 | 
[V:2] z G,, G,,G,, | 
[V:1] F,2z2 :|]  
[V:2] G,, zz2 :|]  
[V:1] z4 | 
[V:2] z4 | 
[V:1] z z/ F,/F,2 | 
[V:2] z4 | 
[V:1] C2B,2 | 
[V:2] z4 | 
[V:1] G,2z C | 
[V:2] z4 | 
[V:1] C3/C/C2 | 
[V:2] z4 | 
[V:1] B,/A,F,/F,2 | 
[V:2] z4 | 
[V:1] B,2CB, | 
[V:2] z G,, G,,G,, | 
[V:1] B,3G, | 
[V:2] z G,, G,,G,, | 
[V:1] F,F,F,2 | 
[V:2] z G,, G,,G,, | 
[V:1] F,2z2 ||  
[V:2] G,, zz2 ||  
[V:1] [M:4/4]z2F,2(3G,F,F, G,F, ||  
[V:2] [M:4/4]z2z2(3z G,,G,, G,,G,, ||  
[V:1] [M:2/4]B,2CB, | 
[V:2] [M:2/4]z G,, G,,G,, | 
[V:1] B,2G,2 | 
[V:2] z G,, G,,G,, | 
[V:1] F,F,F,2 | 
[V:2] z G,, G,,G,, | 
[V:1] F,2z2 |]  
[V:2] G,, zz2 |]  



